X:1
T:Maureen's Jig
C:Fergie Macdonald
R:Jig
Q:1/4=146
S:http://www.blackfordfiddlers.org.uk/Music%20files/Maureen%27s%20Jig.abc
S:Several youtube videos
M:6/8
L:1/8
K:G
D \
| "G"B,2{D}D DB,D |"C"DEG "G"GAB |"D"cBA  "G"B2A |"Em"BGE EGE \
| "G"B,2{D}D DB,D |"C"DEG    G2A |"C"Bdc "D7"B2A | "G"BGG G2 :|
|: A \
| "G"^A2B dBB  |"G"eBB    dBG |"D"ABA     AGA | "D"Bee dBA \
| "G"^A2B dBB  |"G"eBB    dBG |"D"Adc     B2A | "G"BGG G2 :|% A^AB dBB |]
